app/assets/images/home/icon-check-circle.svg

<svg fill="none" height="32" viewBox="0 0 32 32" width="32" xmlns="http://www.w3.org/2000/svg"><path d="m28.5936 12.5059c-.4395-.4583-.8939-.9322-1.0422-1.2905-.1327-.321-.1426-.9788-.1515-1.5589-.0188-1.24975-.0424-2.805-1.1469-3.9095s-2.6597-1.12813-3.9095-1.14688c-.5802-.00875-1.2379-.01874-1.5588-.15149-.3584-.14838-.8323-.60275-1.2905-1.04226-.8857-.84937-1.9878-1.90637-3.4942-1.90637-1.5063 0-2.6085 1.057-3.4941 1.90637-.4583.43951-.9322.89388-1.2905 1.04226-.321.13262-.9788.14262-1.5589.15149-1.24975.01875-2.805.04238-3.9095 1.14688s-1.12825 2.65975-1.147 3.9095c-.00875.5802-.01875 1.2379-.1515 1.5588-.14837.3584-.60275.8323-1.04225 1.2904-.84925.8858-1.90625 1.9879-1.90625 3.4943 0 1.5063 1.057 2.6085 1.90637 3.4941.43951.4583.89388.9321 1.04226 1.2905.13262.321.14262.9788.15149 1.5589.01875 1.2498.04238 2.805 1.14688 3.9095s2.65975 1.1281 3.9095 1.1469c.5802.0087 1.2379.0187 1.5588.1515.3584.1483.8323.6027 1.2904 1.0422.8858.8494 1.9879 1.9064 3.4943 1.9064 1.5063 0 2.6085-1.057 3.4941-1.9064.4583-.4395.9321-.8939 1.2905-1.0422.321-.1327.9788-.1426 1.5589-.1515 1.2498-.0188 2.805-.0424 3.9095-1.1469s1.1281-2.6597 1.1469-3.9095c.0087-.5802.0187-1.2379.1515-1.5588.1483-.3584.6027-.8323 1.0422-1.2905.8494-.8857 1.9064-1.9878 1.9064-3.4942 0-1.5063-1.057-2.6085-1.9064-3.4941zm-2.1652 4.9118c-.6023.6279-1.2849 1.3398-1.649 2.2201-.3518.85-.3657 1.7703-.3792 2.6605-.01.6705-.0238 1.589-.2684 1.8335-.2445.2446-1.163.2583-1.8335.2684-.8902.0135-1.8105.0274-2.6605.3792-.8803.3641-1.5922 1.0467-2.2201 1.649-.445.4267-1.1174 1.0716-1.4177 1.0716s-.9728-.645-1.4178-1.0716c-.6278-.6023-1.3397-1.2849-2.2199-1.649-.8501-.3518-1.7704-.3657-2.66055-.3792-.6705-.01-1.589-.0238-1.8335-.2684-.24463-.2445-.25837-1.163-.2685-1.8335-.0135-.8902-.02738-1.8105-.37913-2.6605-.36412-.8803-1.04674-1.5922-1.64899-2.2201-.42663-.445-1.07163-1.1174-1.07163-1.4177s.645-.9728 1.07163-1.4178c.60225-.6278 1.28487-1.3397 1.64899-2.2199.35175-.8501.36563-1.7704.37913-2.66055.01-.6705.02387-1.589.2685-1.8335.2445-.24463 1.163-.25837 1.8335-.2685.89015-.0135 1.81045-.02738 2.66055-.37913.8802-.36412 1.5921-1.04674 2.2199-1.64899.445-.42663 1.1175-1.07163 1.4178-1.07163s.9727.645 1.4177 1.07163c.6279.60225 1.3398 1.28487 2.2201 1.64899.85.35175 1.7703.36563 2.6605.37913.6705.01 1.589.02387 1.8335.2685.2446.2445.2583 1.163.2684 1.8335.0135.89015.0274 1.81045.3792 2.66055.3641.8802 1.0467 1.5921 1.649 2.2199.4267.445 1.0716 1.1175 1.0716 1.4178s-.645.9727-1.0716 1.4177zm-3.8434-5.4535c.2747.2879.4238.673.4145 1.0707s-.1761.7755-.4639 1.0502l-7.3334 7c-.279.2663-.6499.4149-1.0357.4149s-.7567-.1486-1.0358-.4149l-3.66658-3.5c-.28779-.2747-.45467-.6524-.46393-1.0502-.00926-.3977.13986-.7829.41456-1.0707.2747-.2877.65245-.4546 1.05025-.4639.3977-.0092.7828.1399 1.0706.4146l2.6309 2.5114 6.2975-6.0113c.2878-.2747.673-.4238 1.0707-.4145.3977.0092.7755.176 1.0503.4637z" fill="#2c1b2d"/></svg>

<svg width="32" height="32" viewBox="0 0 32 32" fill="none" xmlns="http://www.w3.org/2000/svg">
<path d="M28.5936 12.5059C28.1541 12.0476 27.6997 11.5737 27.5514 11.2154C27.4187 10.8944 27.4088 10.2366 27.3999 9.6565C27.3811 8.40675 27.3575 6.8515 26.253 5.747C25.1485 4.6425 23.5933 4.61887 22.3435 4.60012C21.7633 4.59137 21.1056 4.58138 20.7847 4.44863C20.4263 4.30025 19.9524 3.84588 19.4942 3.40637C18.6085 2.557 17.5064 1.5 16 1.5C14.4937 1.5 13.3915 2.557 12.5059 3.40637C12.0476 3.84588 11.5737 4.30025 11.2154 4.44863C10.8944 4.58125 10.2366 4.59125 9.6565 4.60012C8.40675 4.61887 6.8515 4.6425 5.747 5.747C4.6425 6.8515 4.61875 8.40675 4.6 9.6565C4.59125 10.2367 4.58125 10.8944 4.4485 11.2153C4.30013 11.5737 3.84575 12.0476 3.40625 12.5057C2.557 13.3915 1.5 14.4936 1.5 16C1.5 17.5063 2.557 18.6085 3.40637 19.4941C3.84588 19.9524 4.30025 20.4262 4.44863 20.7846C4.58125 21.1056 4.59125 21.7634 4.60012 22.3435C4.61887 23.5933 4.6425 25.1485 5.747 26.253C6.8515 27.3575 8.40675 27.3811 9.6565 27.3999C10.2367 27.4086 10.8944 27.4186 11.2153 27.5514C11.5737 27.6997 12.0476 28.1541 12.5057 28.5936C13.3915 29.443 14.4936 30.5 16 30.5C17.5063 30.5 18.6085 29.443 19.4941 28.5936C19.9524 28.1541 20.4262 27.6997 20.7846 27.5514C21.1056 27.4187 21.7634 27.4088 22.3435 27.3999C23.5933 27.3811 25.1485 27.3575 26.253 26.253C27.3575 25.1485 27.3811 23.5933 27.3999 22.3435C27.4086 21.7633 27.4186 21.1056 27.5514 20.7847C27.6997 20.4263 28.1541 19.9524 28.5936 19.4942C29.443 18.6085 30.5 17.5064 30.5 16C30.5 14.4937 29.443 13.3915 28.5936 12.5059ZM26.4284 17.4177C25.8261 18.0456 25.1435 18.7575 24.7794 19.6378C24.4276 20.4878 24.4137 21.4081 24.4002 22.2983C24.3902 22.9688 24.3764 23.8873 24.1318 24.1318C23.8873 24.3764 22.9688 24.3901 22.2983 24.4002C21.4081 24.4137 20.4878 24.4276 19.6378 24.7794C18.7575 25.1435 18.0456 25.8261 17.4177 26.4284C16.9727 26.8551 16.3003 27.5 16 27.5C15.6997 27.5 15.0272 26.855 14.5822 26.4284C13.9544 25.8261 13.2425 25.1435 12.3623 24.7794C11.5122 24.4276 10.5919 24.4137 9.70175 24.4002C9.03125 24.3902 8.11275 24.3764 7.86825 24.1318C7.62362 23.8873 7.60988 22.9688 7.59975 22.2983C7.58625 21.4081 7.57237 20.4878 7.22062 19.6378C6.8565 18.7575 6.17388 18.0456 5.57163 17.4177C5.145 16.9727 4.5 16.3003 4.5 16C4.5 15.6997 5.145 15.0272 5.57163 14.5822C6.17388 13.9544 6.8565 13.2425 7.22062 12.3623C7.57237 11.5122 7.58625 10.5919 7.59975 9.70175C7.60975 9.03125 7.62362 8.11275 7.86825 7.86825C8.11275 7.62362 9.03125 7.60988 9.70175 7.59975C10.5919 7.58625 11.5122 7.57237 12.3623 7.22062C13.2425 6.8565 13.9544 6.17388 14.5822 5.57163C15.0272 5.145 15.6997 4.5 16 4.5C16.3003 4.5 16.9727 5.145 17.4177 5.57163C18.0456 6.17388 18.7575 6.8565 19.6378 7.22062C20.4878 7.57237 21.4081 7.58625 22.2983 7.59975C22.9688 7.60975 23.8873 7.62362 24.1318 7.86825C24.3764 8.11275 24.3901 9.03125 24.4002 9.70175C24.4137 10.5919 24.4276 11.5122 24.7794 12.3623C25.1435 13.2425 25.8261 13.9544 26.4284 14.5822C26.8551 15.0272 27.5 15.6997 27.5 16C27.5 16.3003 26.855 16.9727 26.4284 17.4177ZM22.585 11.9642C22.8597 12.2521 23.0088 12.6372 22.9995 13.0349C22.9902 13.4326 22.8234 13.8104 22.5356 14.0851L15.2022 21.0851C14.9232 21.3514 14.5523 21.5 14.1665 21.5C13.7807 21.5 13.4098 21.3514 13.1307 21.0851L9.46412 17.5851C9.17633 17.3104 9.00945 16.9327 9.00019 16.5349C8.99093 16.1372 9.14005 15.752 9.41475 15.4642C9.68945 15.1765 10.0672 15.0096 10.465 15.0003C10.8627 14.9911 11.2478 15.1402 11.5356 15.4149L14.1665 17.9263L20.464 11.915C20.7518 11.6403 21.137 11.4912 21.5347 11.5005C21.9324 11.5097 22.3102 11.6765 22.585 11.9642Z" fill="#2C1B2D"/>
</svg>
